X: 1152
T: An Buachaillin Dreoite
R: jig
M: 6/8
K: Gmajor
GF|:DG{A}G (3.A.c.A G|(3.A.c.A G G2 A|D.G.G (3.A.c.A G|(3dcA G FDc|
D.G.G (3.A.c.A G|(3.A.c.A G GBd|e~f2 {a}gfd|1 cAG (3EFG A:|2 cAF G3||
|:B3 c2e|dcA ~G3-|G.B.B GBd|cAD JFGA|
~B3 {d}cBc|d^cd Jf2g|{b}a.g.g {a}gfd|{d}=cAG G3:|

